X:1
T:Co vedo la mia donna
T:Giovanni Croce Chiozzotto
T:Source : Canzonette a 3 voci---Libro primo---Venetia---G.Vincenti---1601. Editor : André Vierendeels (14/11/14).
T:Co vedo la mia donna
C:Giovanni Croce Chiozzotto
%%score [ 1 [ 2 3 ] ]
L:1/8
Q:1/4=80
M:4/4
K:C
V:1 treble nm="Alto" snm="A"
V:2 treble-8 nm="Tenor 1" snm="T 1"
V:3 treble-8 nm="Tenor 2" snm="T 2"
V:1
 E4 E4- | E2 E2 E2 F2 | G4 D2 E2 | F4 E4 | z4 A4- | A4 G2 F2 | E2 F2 E4 |[M:2/4] D4- :: %8
w: Co ve-|* do la mia|don- no no|no na|da|_ na na|na dol cez-|za,|
w: Co la|_ me ve- de|ve- stio de|vel- vo,|la|_ tre- ma'e|sua e pian-|ze,|
[M:4/4] D4 A4 | GGGG G4- | G2 D2 F4 |[M:2/4] E2 E2 |[M:4/4] F4 E4 | z4 z2 D2 | F4 E4 | %15
w: * e|te ne ne ne ne|_ mo'e su|o, e|pian- zo,|e|pian- zo|
w: * e|a un tem- po ri-|* de'a un|tem- po|ri- de,|e|mi co,|
 z2 A2 A2 G2 | FG AG/F/ EDEF | ^G2 A4 G2 | A4 z2 E2 | E3 E E2 F2 | G4 A2 F2- | F2 F2 G4 | %22
w: e me ne-|ri- ni ni ni ni ni ni ni ni|ni ni ni-|do, fa-|gan- do ghe co'i|oc- chi de|_ re- vi-|
w: e mi co-|co co co el- l'a que- ste so re-|gi- * *|de, e|mi co e- l'a|que- ste so|_ re- vi-|
[M:3/2] A8 A4 | G6 AF GEDD | F E2 D D2 D E2 F D2 | D E3 D8 :| %26
w: do, sal-|tan- do, schit- to- lan- do d'al-|le- grez- za, d'al- le- grez- za, d'al-|le- grez- za.|
w: de, sal-|tan- do, schit- to- lan- do,- sal-|dan- do, schit- to- lan- do, e va-|go'in bru- o.-|
V:2
 ^c4 c4- |"^-natural" c2 ^c2 c2 c2 | d8- | d4 ^c4 | z4 f4- | f4 e2 d2 | ^c2 d2 c4 |[M:2/4] d4 :: %8
w: Co- ve-|* do la mia|don|_ na,|da|_ na na|na dol- cez-|za,|
w: Co la|_ me ve- de|ve|_ stio|la|_ tre- ma'e|sua e pian-|ze,|
[M:4/4] f4 eeee | e6 d2 | d8 |[M:2/4] ^c2 c2 |[M:4/4] d4 ^c4 | z2 d2 d4- | d4 ^c4 | z2 f2 f2 e2 | %16
w: e tre ne ne ne|ne mo'e|su-|o, e|pian- zo,|e pian-|* zo|e me ne-|
w: e a un tem- po|ri- de'a|un|tem- po|ri- de,|e mi|* co,|e mi co|
 d2 cB c2 BA | B2 c2 B4 |"^#" A4 z2 c2 | ^c3 c d2 c2 | e4 f2 d2- | d2 f2 e4 |[M:3/2] f8 f4 | %23
w: ri- ni ni- ni ni ni|ni ni ni-|do, fa|gan- do che co'i|oc- chi de|_ re- vi-|do, sal-|
w: co co el' l'a que- sto|re- gi- *|de, e|mi co el- l'a|que- ste so|_ re- vi-|de, sal-|
 e6 fd ecd_B | d ^c2 d _B2 d c2 d B2 | d ^c3 d8 :| %26
w: ran- do, schit- to- lan- do d'al-|le- grez- za, d'al- le- grez- za, d'al-|le- grez- za.|
w: tan- do, schit- to- lan- do, sal-|tan- do, schit- to- lan- do, e va-|go'in bru- o.|
V:3
 A4 A4- | A2 A2 A2 A2 | _B8 | A8 | z4 F4- | F4 G4 | A8 |[M:2/4] D4 ::[M:4/4] d4 cccc | c6 G2 | %10
w: Co ve-|* do la mia|don-|na,|da|_ dol-|cez-|za,|e tre ne ne ne|ne mo'e|
w: Co la|_ me ve- de|ve-|stio|la|_ tre-|ma'e|sua|e a un tem- po|ri- *|
 _B4 A4- |[M:2/4] A4 |[M:4/4] z4 A4 | _B8 | A8 | z2 F2 F2 C2 | DEFG A2 GF | E8 | A4 z2 A2 | %19
w: su- o|_|e|pian-|zo|e me ne-|ri- ni ni ni ni ni ni|ni-|do, fa-|
w: * de,|_|e|pian-|zo|e mi ne-|ri- ni ni ni ni ni ni|ni-|do, e|
 A3 A A2 c2 | c4 A2 _B2- | B2 d2 c4 |[M:3/2] F8 F4 | c6 A_B GA^FG | D A2 D G2 _B A2 D G2 | %25
w: gan- do che co'i|oc- chi de|_ re- vi-|do, sal|tan- do schit- to- lan- do d'al-|le- grez- za, d'al- le- grez- za, d'al-|
w: mi co el- l'a|que- ste so|_ re- vi-|de, sal-|tan- do, schit- to- lan- do, sal-|tan- do, schit- to- lan- do, e va-|
 _B A3 D8 :| %26
w: le- grez- za.|
w: go'in bru- o.|

